img/icons/logo-footer.svg

<svg width="150" height="58" viewBox="0 0 150 58" fill="none" xmlns="http://www.w3.org/2000/svg">
<path d="M67.9238 39.9842H69.1031V48.8604H67.9238V39.9842Z" fill="white"/>
<path d="M76.2442 48.0615C75.5932 48.704 74.8028 49.0252 73.873 49.0252C72.9431 49.0252 72.1527 48.704 71.5017 48.0615C70.8593 47.4191 70.538 46.6287 70.538 45.6903C70.538 44.752 70.8593 43.9616 71.5017 43.3191C72.1527 42.6767 72.9431 42.3554 73.873 42.3554C74.8028 42.3554 75.5932 42.6767 76.2442 43.3191C76.8951 43.9616 77.2205 44.752 77.2205 45.6903C77.2205 46.6287 76.8951 47.4191 76.2442 48.0615ZM73.873 47.9474C74.507 47.9474 75.0395 47.7318 75.4707 47.3007C75.9018 46.8696 76.1174 46.3328 76.1174 45.6903C76.1174 45.0479 75.9018 44.5111 75.4707 44.0799C75.0395 43.6488 74.507 43.4332 73.873 43.4332C73.2474 43.4332 72.719 43.6488 72.2879 44.0799C71.8568 44.5111 71.6412 45.0479 71.6412 45.6903C71.6412 46.3328 71.8568 46.8696 72.2879 47.3007C72.719 47.7318 73.2474 47.9474 73.873 47.9474Z" fill="white"/>
<path d="M84.3159 39.9842V41.1001H81.6911V48.8604H80.5245V41.1001H77.9124V39.9842H84.3159Z" fill="white"/>
<path d="M91.8739 39.9842C92.6939 39.9842 93.3744 40.2589 93.9154 40.8084C94.4649 41.3495 94.7396 42.0257 94.7396 42.8373C94.7396 43.6404 94.4649 44.3166 93.9154 44.8661C93.3744 45.4156 92.6939 45.6903 91.8739 45.6903H89.8323V48.8604H88.6531V39.9842H91.8739ZM91.8739 44.5871C92.3642 44.5871 92.7699 44.4223 93.0912 44.0926C93.4124 43.7545 93.573 43.336 93.573 42.8373C93.573 42.3301 93.4124 41.9116 93.0912 41.5819C92.7699 41.2522 92.3642 41.0874 91.8739 41.0874H89.8323V44.5871H91.8739Z" fill="white"/>
<path d="M97.3117 47.7445H101.141V48.8604H96.1325V39.9842H97.3117V47.7445Z" fill="white"/>
<path d="M108.417 48.8604L107.694 46.8696H103.7L102.977 48.8604H101.722L105.032 39.9842H106.363L109.673 48.8604H108.417ZM104.106 45.7664H107.289L105.691 41.3917L104.106 45.7664Z" fill="white"/>
<path d="M115.757 39.9842V41.1001H113.132V48.8604H111.965V41.1001H109.353V39.9842H115.757Z" fill="white"/>
<path d="M122.034 41.1001H118.103V43.9785H121.869V45.0944H118.103V48.8604H116.924V39.9842H122.034V41.1001Z" fill="white"/>
<path d="M130.842 47.6811C129.954 48.5772 128.868 49.0252 127.583 49.0252C126.298 49.0252 125.212 48.5772 124.324 47.6811C123.437 46.7851 122.993 45.6988 122.993 44.4223C122.993 43.1374 123.437 42.0511 124.324 41.1635C125.212 40.2674 126.298 39.8194 127.583 39.8194C128.868 39.8194 129.954 40.2674 130.842 41.1635C131.738 42.0511 132.186 43.1374 132.186 44.4223C132.186 45.6988 131.738 46.7851 130.842 47.6811ZM125.136 46.8823C125.795 47.5416 126.611 47.8713 127.583 47.8713C128.555 47.8713 129.367 47.5416 130.018 46.8823C130.677 46.2144 131.007 45.3945 131.007 44.4223C131.007 43.4417 130.677 42.6217 130.018 41.9623C129.367 41.2945 128.555 40.9606 127.583 40.9606C126.611 40.9606 125.795 41.2945 125.136 41.9623C124.485 42.6217 124.159 43.4417 124.159 44.4223C124.159 45.3945 124.485 46.2144 125.136 46.8823Z" fill="white"/>
<path d="M138.866 48.8604L136.875 45.4621H134.783V48.8604H133.604V39.9842H137.154C137.915 39.9842 138.566 40.2547 139.107 40.7957C139.648 41.3283 139.918 41.975 139.918 42.7358C139.918 43.3107 139.745 43.8348 139.398 44.3082C139.06 44.7816 138.621 45.1155 138.08 45.3099L140.172 48.8604H138.866ZM134.783 41.0874V44.3969H137.154C137.594 44.3969 137.966 44.2363 138.27 43.9151C138.583 43.5854 138.739 43.1923 138.739 42.7358C138.739 42.2793 138.583 41.8905 138.27 41.5692C137.966 41.248 137.594 41.0874 137.154 41.0874H134.783Z" fill="white"/>
<path d="M149.661 39.9842V48.8604H148.494V41.9243L145.591 46.7555H145.438L142.535 41.937V48.8604H141.355V39.9842H142.687L145.515 44.6759L148.33 39.9842H149.661Z" fill="white"/>
<path d="M79.6831 32.8025C76.3832 32.8025 73.6577 31.706 71.5065 29.5131C69.3554 27.3201 68.2798 24.6155 68.2798 21.3992C68.2798 18.162 69.3554 15.4574 71.5065 13.2853C73.6577 11.0924 76.3832 9.99591 79.6831 9.99591C81.6672 9.99591 83.4946 10.4658 85.1654 11.4057C86.8571 12.3246 88.1729 13.5777 89.1127 15.165L85.3847 17.3266C84.8417 16.345 84.0689 15.5827 83.0665 15.0397C82.064 14.4758 80.9362 14.1938 79.6831 14.1938C77.5528 14.1938 75.8298 14.8621 74.514 16.1988C73.2191 17.5354 72.5717 19.2689 72.5717 21.3992C72.5717 23.5086 73.2191 25.2316 74.514 26.5683C75.8298 27.9049 77.5528 28.5732 79.6831 28.5732C80.9362 28.5732 82.064 28.3017 83.0665 27.7587C84.0898 27.1948 84.8626 26.4325 85.3847 25.4718L89.1127 27.6334C88.1729 29.2207 86.8676 30.4842 85.1967 31.4241C83.5259 32.343 81.688 32.8025 79.6831 32.8025Z" fill="white"/>
<path d="M99.945 32.8025C97.5014 32.8025 95.4965 32.1133 93.9301 30.7348C92.3637 29.3564 91.5805 27.5081 91.5805 25.1898V10.4345H95.8724V24.8452C95.8724 25.9939 96.1961 26.9024 96.8435 27.5708C97.5119 28.2391 98.5457 28.5732 99.945 28.5732C101.344 28.5732 102.368 28.2391 103.015 27.5708C103.683 26.9024 104.018 25.9939 104.018 24.8452V10.4345H108.341V25.1898C108.341 27.5081 107.558 29.3564 105.991 30.7348C104.425 32.1133 102.409 32.8025 99.945 32.8025Z" fill="white"/>
<path d="M125.487 20.9919C127.409 22.0988 128.369 23.7697 128.369 26.0044C128.369 27.8631 127.711 29.3878 126.396 30.5782C125.08 31.7687 123.461 32.3639 121.54 32.3639H112.235V10.4345H120.882C122.762 10.4345 124.338 11.0193 125.612 12.1888C126.907 13.3375 127.555 14.8099 127.555 16.6061C127.555 18.4231 126.866 19.885 125.487 20.9919ZM120.882 14.4758H116.559V19.3002H120.882C121.55 19.3002 122.104 19.0705 122.542 18.611C123.002 18.1516 123.231 17.5772 123.231 16.888C123.231 16.1988 123.012 15.6245 122.574 15.165C122.135 14.7055 121.571 14.4758 120.882 14.4758ZM121.54 28.3226C122.271 28.3226 122.876 28.0824 123.357 27.6021C123.837 27.1008 124.077 26.4743 124.077 25.7224C124.077 24.9914 123.837 24.3858 123.357 23.9054C122.876 23.4042 122.271 23.1535 121.54 23.1535H116.559V28.3226H121.54Z" fill="white"/>
<path d="M145.301 32.3639L143.985 28.4166H135.245L133.929 32.3639H129.261L136.936 10.4345H142.293L150 32.3639H145.301ZM136.623 24.3753H142.638L139.631 15.4156L136.623 24.3753Z" fill="white"/>
<path d="M24.5653 0L49.1376 14.2603V42.1956L24.5653 57.1175L0 42.1538V14.1767L24.5653 0Z" fill="white"/>
<path d="M24.4938 16.9786L34.5184 22.7658V34.3401L24.4938 40.1272L14.4692 34.3401V22.7658L24.4938 16.9786Z" fill="#E6E6E6"/>
<path d="M24.6151 57.1176L0.000488281 42.1956L14.1725 34.3755L24.6151 40.335L35.0577 34.3755L49.2297 42.1997L24.6151 57.1176Z" fill="#EBEBEB"/>
<path d="M49.2294 14.2255V42.1967L35.0573 34.3754V23.1763L24.6147 17.2295V-4.95911e-05L49.2294 14.2255Z" fill="#D9D9D9"/>
<path d="M0.000131607 14.2255V42.1967L14.1722 34.3754V23.1763L24.6147 17.2295V-4.95911e-05L0.000131607 14.2255Z" fill="white"/>
<path d="M24.6144 29.1898L35.057 34.3754L24.6144 40.3783L14.1719 34.3754L24.6144 29.1898Z" fill="#A9ACB0"/>
<path d="M24.6138 29.1898V17.2295L35.0563 23.1678V34.3754L24.6138 29.1898Z" fill="#BABABA"/>
<path d="M24.6138 29.1898V17.2295L14.1712 23.1678V34.3754L24.6138 29.1898Z" fill="#E6E6E6"/>
</svg>

<svg width="150" height="58" fill="none" xmlns="http://www.w3.org/2000/svg"><path d="M67.924 39.984h1.18v8.876h-1.18v-8.876ZM76.244 48.062c-.65.642-1.441.963-2.371.963-.93 0-1.72-.321-2.371-.963-.643-.643-.964-1.433-.964-2.372 0-.938.321-1.728.964-2.37.65-.643 1.441-.965 2.371-.965.93 0 1.72.322 2.371.964.651.643.977 1.433.977 2.371 0 .939-.326 1.73-.977 2.372Zm-2.371-.115c.634 0 1.166-.215 1.598-.646.43-.431.646-.968.646-1.61 0-.643-.215-1.18-.646-1.611-.431-.431-.964-.647-1.598-.647-.626 0-1.154.216-1.585.647-.431.431-.647.968-.647 1.61 0 .643.216 1.18.647 1.61.431.432.96.647 1.585.647ZM84.316 39.984V41.1H81.69v7.76h-1.166V41.1h-2.613v-1.116h6.404ZM91.874 39.984c.82 0 1.5.275 2.041.824.55.541.825 1.218.825 2.03 0 .802-.275 1.479-.825 2.028-.54.55-1.221.824-2.041.824h-2.042v3.17h-1.179v-8.876h3.22Zm0 4.603c.49 0 .896-.165 1.217-.494.321-.339.482-.757.482-1.256 0-.507-.16-.925-.482-1.255-.321-.33-.727-.495-1.217-.495h-2.042v3.5h2.042ZM97.312 47.745h3.829v1.115h-5.009v-8.876h1.18v7.76ZM108.417 48.86l-.723-1.99H103.7l-.723 1.99h-1.255l3.31-8.876h1.331l3.31 8.876h-1.256Zm-4.311-3.094h3.183l-1.598-4.374-1.585 4.374ZM115.757 39.984V41.1h-2.625v7.76h-1.167V41.1h-2.612v-1.116h6.404ZM122.034 41.1h-3.931v2.878h3.766v1.116h-3.766v3.766h-1.179v-8.876h5.11V41.1ZM130.842 47.681c-.888.896-1.974 1.344-3.259 1.344s-2.371-.448-3.259-1.344c-.887-.896-1.331-1.982-1.331-3.259 0-1.285.444-2.37 1.331-3.258.888-.897 1.974-1.345 3.259-1.345s2.371.448 3.259 1.344c.896.888 1.344 1.974 1.344 3.26 0 1.276-.448 2.362-1.344 3.258Zm-5.706-.799c.659.66 1.475.99 2.447.99s1.784-.33 2.435-.99c.659-.668.989-1.487.989-2.46 0-.98-.33-1.8-.989-2.46-.651-.668-1.463-1.001-2.435-1.001s-1.788.334-2.447 1.001c-.651.66-.977 1.48-.977 2.46 0 .973.326 1.792.977 2.46ZM138.866 48.86l-1.991-3.398h-2.092v3.398h-1.179v-8.876h3.55c.761 0 1.412.27 1.953.812a2.62 2.62 0 0 1 .811 1.94c0 .575-.173 1.099-.52 1.572a2.713 2.713 0 0 1-1.318 1.002l2.092 3.55h-1.306Zm-4.083-7.773v3.31h2.371c.44 0 .812-.16 1.116-.482.313-.33.469-.723.469-1.18a1.61 1.61 0 0 0-.469-1.166 1.477 1.477 0 0 0-1.116-.482h-2.371ZM149.661 39.984v8.876h-1.167v-6.936l-2.903 4.831h-.153l-2.903-4.818v6.923h-1.18v-8.876h1.332l2.828 4.692 2.815-4.692h1.331ZM79.683 32.803c-3.3 0-6.025-1.097-8.177-3.29-2.15-2.193-3.226-4.898-3.226-8.114 0-3.237 1.075-5.942 3.227-8.114 2.15-2.193 4.876-3.29 8.176-3.29 1.984 0 3.812.47 5.482 1.41 1.692.92 3.008 2.173 3.948 3.76l-3.728 2.162a5.686 5.686 0 0 0-2.319-2.287c-1.002-.564-2.13-.846-3.383-.846-2.13 0-3.853.668-5.169 2.005-1.295 1.336-1.942 3.07-1.942 5.2 0 2.11.647 3.833 1.942 5.17 1.316 1.336 3.039 2.004 5.17 2.004 1.252 0 2.38-.271 3.383-.814 1.023-.564 1.796-1.326 2.318-2.287l3.728 2.161c-.94 1.588-2.245 2.851-3.916 3.791-1.671.919-3.509 1.379-5.514 1.379ZM99.945 32.803c-2.444 0-4.448-.69-6.015-2.068-1.566-1.379-2.35-3.227-2.35-5.545V10.434h4.292v14.411c0 1.149.324 2.057.972 2.726.668.668 1.702 1.002 3.101 1.002s2.423-.334 3.07-1.002c.668-.669 1.003-1.577 1.003-2.726v-14.41h4.323V25.19c0 2.318-.783 4.166-2.35 5.545-1.566 1.378-3.582 2.068-6.046 2.068ZM125.487 20.992c1.922 1.107 2.882 2.778 2.882 5.012 0 1.86-.658 3.384-1.973 4.574-1.316 1.19-2.935 1.786-4.856 1.786h-9.305v-21.93h8.647c1.88 0 3.456.585 4.73 1.755 1.295 1.149 1.943 2.62 1.943 4.417 0 1.817-.689 3.279-2.068 4.386Zm-4.605-6.516h-4.323V19.3h4.323c.668 0 1.222-.23 1.66-.689.46-.46.689-1.034.689-1.723 0-.69-.219-1.264-.657-1.723-.439-.46-1.003-.69-1.692-.69Zm.658 13.847c.731 0 1.336-.24 1.817-.72.48-.502.72-1.129.72-1.88 0-.732-.24-1.337-.72-1.818-.481-.5-1.086-.752-1.817-.752h-4.981v5.17h4.981ZM145.301 32.364l-1.316-3.947h-8.74l-1.316 3.947h-4.668l7.675-21.93h5.357L150 32.364h-4.699Zm-8.678-7.989h6.015l-3.007-8.96-3.008 8.96ZM24.565 0l24.573 14.26v27.936L24.565 57.118 0 42.154V14.177L24.565 0Z" fill="#fff"/><path d="m24.494 16.979 10.024 5.787V34.34l-10.024 5.787-10.025-5.787V22.766l10.025-5.787Z" fill="#E6E6E6"/><path d="M24.615 57.118 0 42.196l14.172-7.82 10.443 5.959 10.443-5.96L49.23 42.2 24.615 57.118Z" fill="#EBEBEB"/><path d="M49.23 14.226v27.97l-14.173-7.82v-11.2L24.615 17.23V0l24.614 14.226Z" fill="#D9D9D9"/><path d="M0 14.226v27.97l14.172-7.82v-11.2l10.443-5.946V0L0 14.226Z" fill="#fff"/><path d="m24.614 29.19 10.443 5.185-10.443 6.003-10.442-6.003 10.442-5.185Z" fill="#A9ACB0"/><path d="M24.614 29.19V17.23l10.442 5.938v11.207L24.614 29.19Z" fill="#BABABA"/><path d="M24.614 29.19V17.23L14.17 23.168v11.207l10.443-5.185Z" fill="#E6E6E6"/></svg>
